src/images/trustpilot.svg

<svg width="138" height="52" viewBox="0 0 138 52" fill="none" xmlns="http://www.w3.org/2000/svg">
<path d="M14.2529 32.8818L20.2694 31.357L22.7831 39.1043L14.2529 32.8818ZM28.099 22.868H17.5084L14.2529 12.8955L10.9974 22.868H0.406738L8.97817 29.0494L5.72267 39.0219L14.2941 32.8406L19.5688 29.0494L28.099 22.868Z" fill="#219653"/>
<path d="M44.2053 17.125V34H42.0032V17.125H44.2053ZM49.6295 17.125V18.9562H36.5907V17.125H49.6295ZM53.0717 23.4299V34H50.9275V21.4596H53.0137L53.0717 23.4299ZM56.9891 21.3901L56.9775 23.3836C56.7998 23.345 56.6298 23.3218 56.4675 23.314C56.313 23.2986 56.1353 23.2909 55.9344 23.2909C55.4399 23.2909 55.0033 23.3681 54.6247 23.5227C54.2461 23.6772 53.9255 23.8935 53.6628 24.1717C53.4001 24.4499 53.1914 24.7821 53.0369 25.1684C52.8901 25.547 52.7935 25.9643 52.7472 26.4202L52.1445 26.7679C52.1445 26.0106 52.2179 25.2998 52.3647 24.6353C52.5192 23.9708 52.7549 23.3836 53.0717 22.8736C53.3885 22.3559 53.7903 21.9542 54.277 21.6683C54.7715 21.3747 55.3588 21.2278 56.0387 21.2278C56.1932 21.2278 56.371 21.2472 56.5718 21.2858C56.7727 21.3167 56.9118 21.3515 56.9891 21.3901ZM66.6435 31.1025V21.4596H68.7993V34H66.7478L66.6435 31.1025ZM67.0492 28.46L67.9416 28.4368C67.9416 29.2713 67.8528 30.044 67.675 30.7548C67.5051 31.4579 67.2269 32.0683 66.8406 32.586C66.4542 33.1037 65.9481 33.5094 65.3223 33.803C64.6964 34.0889 63.9353 34.2318 63.039 34.2318C62.4286 34.2318 61.8685 34.1429 61.3585 33.9652C60.8563 33.7875 60.4236 33.5132 60.0604 33.1423C59.6973 32.7715 59.4153 32.2885 59.2144 31.6936C59.0212 31.0986 58.9246 30.3839 58.9246 29.5494V21.4596H61.0688V29.5726C61.0688 30.1367 61.1306 30.6041 61.2542 30.975C61.3855 31.3382 61.5594 31.6279 61.7757 31.8443C61.9998 32.0529 62.2471 32.1997 62.5175 32.2847C62.7957 32.3697 63.0815 32.4122 63.3752 32.4122C64.2869 32.4122 65.0093 32.2383 65.5425 31.8906C66.0756 31.5352 66.4581 31.06 66.6899 30.4651C66.9294 29.8624 67.0492 29.194 67.0492 28.46ZM79.3693 30.6737C79.3693 30.3646 79.2998 30.0787 79.1607 29.816C79.0294 29.5456 78.7551 29.3022 78.3378 29.0859C77.9283 28.8618 77.3102 28.6686 76.4834 28.5064C75.788 28.3595 75.1583 28.1857 74.5943 27.9848C74.0379 27.7839 73.5627 27.5405 73.1687 27.2546C72.7824 26.9687 72.4849 26.6326 72.2763 26.2463C72.0676 25.86 71.9633 25.408 71.9633 24.8903C71.9633 24.3958 72.0715 23.9283 72.2878 23.4879C72.5119 23.0475 72.8249 22.6573 73.2266 22.3173C73.6361 21.9773 74.1268 21.7108 74.6986 21.5176C75.2703 21.3244 75.9078 21.2278 76.6109 21.2278C77.6154 21.2278 78.473 21.4056 79.1839 21.761C79.8947 22.1164 80.4395 22.5916 80.8181 23.1866C81.1967 23.7738 81.386 24.4267 81.386 25.1453H79.2418C79.2418 24.7976 79.1375 24.4615 78.9289 24.1369C78.728 23.8047 78.4305 23.5304 78.0365 23.314C77.6501 23.0977 77.175 22.9895 76.6109 22.9895C76.016 22.9895 75.533 23.0822 75.1622 23.2677C74.799 23.4454 74.5324 23.6733 74.3625 23.9515C74.2002 24.2297 74.1191 24.5233 74.1191 24.8323C74.1191 25.0641 74.1577 25.2727 74.235 25.4582C74.32 25.6359 74.4668 25.802 74.6754 25.9566C74.884 26.1034 75.1776 26.2424 75.5562 26.3738C75.9348 26.5052 76.4177 26.6365 77.005 26.7679C78.0326 26.9997 78.8787 27.2778 79.5432 27.6023C80.2077 27.9269 80.7022 28.3248 81.0267 28.7961C81.3512 29.2674 81.5135 29.8392 81.5135 30.5114C81.5135 31.06 81.3976 31.5622 81.1658 32.0181C80.9417 32.474 80.6133 32.868 80.1806 33.2003C79.7557 33.5248 79.2457 33.7798 78.6507 33.9652C78.0635 34.1429 77.4029 34.2318 76.6689 34.2318C75.5639 34.2318 74.629 34.0348 73.8641 33.6407C73.0991 33.2467 72.5196 32.7367 72.1256 32.1108C71.7315 31.485 71.5345 30.8243 71.5345 30.1289H73.6902C73.7211 30.7162 73.8911 31.1836 74.2002 31.5313C74.5093 31.8713 74.8879 32.1147 75.336 32.2615C75.7842 32.4006 76.2284 32.4701 76.6689 32.4701C77.2561 32.4701 77.7467 32.3929 78.1408 32.2383C78.5426 32.0838 78.8478 31.8713 79.0564 31.6009C79.265 31.3304 79.3693 31.0214 79.3693 30.6737ZM89.5801 21.4596V23.1054H82.8V21.4596H89.5801ZM85.0948 18.4115H87.2389V30.8939C87.2389 31.3189 87.3046 31.6395 87.4359 31.8559C87.5673 32.0722 87.7373 32.2151 87.9459 32.2847C88.1545 32.3542 88.3786 32.389 88.6181 32.389C88.7958 32.389 88.9813 32.3735 89.1744 32.3426C89.3753 32.304 89.526 32.2731 89.6265 32.2499L89.638 34C89.4681 34.0541 89.244 34.1043 88.9658 34.1507C88.6954 34.2048 88.367 34.2318 87.9807 34.2318C87.4553 34.2318 86.9723 34.1275 86.5319 33.9189C86.0915 33.7103 85.7399 33.3626 85.4772 32.8758C85.2223 32.3813 85.0948 31.7168 85.0948 30.8823V18.4115ZM94.2393 23.8704V38.8214H92.0835V21.4596H94.0538L94.2393 23.8704ZM102.688 27.6255V27.8689C102.688 28.7806 102.58 29.6267 102.364 30.4071C102.147 31.1798 101.831 31.852 101.413 32.4238C101.004 32.9955 100.498 33.4398 99.8952 33.7566C99.2925 34.0734 98.601 34.2318 97.8206 34.2318C97.0247 34.2318 96.3216 34.1004 95.7112 33.8377C95.1008 33.575 94.5831 33.1926 94.1581 32.6903C93.7332 32.1881 93.3932 31.5854 93.1382 30.8823C92.891 30.1792 92.721 29.3872 92.6283 28.5064V27.2083C92.721 26.2811 92.8948 25.4505 93.1498 24.7164C93.4048 23.9824 93.7409 23.3565 94.1581 22.8389C94.5831 22.3134 95.0969 21.9155 95.6996 21.6451C96.3023 21.3669 96.9977 21.2278 97.7858 21.2278C98.5739 21.2278 99.2732 21.3824 99.8836 21.6914C100.494 21.9928 101.008 22.4255 101.425 22.9895C101.842 23.5536 102.155 24.2297 102.364 25.0178C102.58 25.7982 102.688 26.6674 102.688 27.6255ZM100.533 27.8689V27.6255C100.533 26.9997 100.467 26.4124 100.336 25.8638C100.204 25.3075 99.9995 24.8207 99.7213 24.4035C99.4509 23.9785 99.1032 23.6463 98.6782 23.4068C98.2533 23.1595 97.7472 23.0359 97.1599 23.0359C96.6191 23.0359 96.1477 23.1286 95.746 23.314C95.3519 23.4995 95.0158 23.7506 94.7376 24.0674C94.4595 24.3765 94.2315 24.7319 94.0538 25.1337C93.8838 25.5277 93.7563 25.9372 93.6714 26.3622V29.364C93.8259 29.9049 94.0422 30.4148 94.3204 30.8939C94.5986 31.3652 94.9694 31.7477 95.433 32.0413C95.8966 32.3272 96.48 32.4701 97.1831 32.4701C97.7626 32.4701 98.261 32.3504 98.6782 32.1108C99.1032 31.8636 99.4509 31.5275 99.7213 31.1025C99.9995 30.6775 100.204 30.1908 100.336 29.6422C100.467 29.0859 100.533 28.4948 100.533 27.8689ZM107.753 21.4596V34H105.597V21.4596H107.753ZM105.435 18.1333C105.435 17.7856 105.539 17.492 105.748 17.2525C105.964 17.013 106.281 16.8932 106.698 16.8932C107.108 16.8932 107.421 17.013 107.637 17.2525C107.861 17.492 107.973 17.7856 107.973 18.1333C107.973 18.4656 107.861 18.7515 107.637 18.991C107.421 19.2228 107.108 19.3387 106.698 19.3387C106.281 19.3387 105.964 19.2228 105.748 18.991C105.539 18.7515 105.435 18.4656 105.435 18.1333ZM113.525 16.1978V34H111.369V16.1978H113.525ZM116.399 27.8689V27.6023C116.399 26.6983 116.531 25.86 116.793 25.0873C117.056 24.3069 117.435 23.6308 117.929 23.0591C118.424 22.4796 119.022 22.0314 119.726 21.7146C120.429 21.3901 121.217 21.2278 122.09 21.2278C122.971 21.2278 123.763 21.3901 124.466 21.7146C125.177 22.0314 125.779 22.4796 126.274 23.0591C126.776 23.6308 127.159 24.3069 127.421 25.0873C127.684 25.86 127.815 26.6983 127.815 27.6023V27.8689C127.815 28.7729 127.684 29.6113 127.421 30.3839C127.159 31.1566 126.776 31.8327 126.274 32.4122C125.779 32.9839 125.181 33.4321 124.478 33.7566C123.782 34.0734 122.994 34.2318 122.113 34.2318C121.232 34.2318 120.44 34.0734 119.737 33.7566C119.034 33.4321 118.431 32.9839 117.929 32.4122C117.435 31.8327 117.056 31.1566 116.793 30.3839C116.531 29.6113 116.399 28.7729 116.399 27.8689ZM118.543 27.6023V27.8689C118.543 28.4948 118.617 29.0859 118.764 29.6422C118.91 30.1908 119.131 30.6775 119.424 31.1025C119.726 31.5275 120.1 31.8636 120.549 32.1108C120.997 32.3504 121.518 32.4701 122.113 32.4701C122.7 32.4701 123.214 32.3504 123.655 32.1108C124.103 31.8636 124.474 31.5275 124.767 31.1025C125.061 30.6775 125.281 30.1908 125.428 29.6422C125.582 29.0859 125.66 28.4948 125.66 27.8689V27.6023C125.66 26.9842 125.582 26.4008 125.428 25.8522C125.281 25.2959 125.057 24.8053 124.756 24.3803C124.462 23.9476 124.091 23.6077 123.643 23.3604C123.203 23.1132 122.685 22.9895 122.09 22.9895C121.503 22.9895 120.985 23.1132 120.537 23.3604C120.096 23.6077 119.726 23.9476 119.424 24.3803C119.131 24.8053 118.91 25.2959 118.764 25.8522C118.617 26.4008 118.543 26.9842 118.543 27.6023ZM135.755 21.4596V23.1054H128.974V21.4596H135.755ZM131.269 18.4115H133.413V30.8939C133.413 31.3189 133.479 31.6395 133.61 31.8559C133.742 32.0722 133.912 32.2151 134.12 32.2847C134.329 32.3542 134.553 32.389 134.793 32.389C134.97 32.389 135.156 32.3735 135.349 32.3426C135.55 32.304 135.7 32.2731 135.801 32.2499L135.812 34C135.643 34.0541 135.418 34.1043 135.14 34.1507C134.87 34.2048 134.541 34.2318 134.155 34.2318C133.63 34.2318 133.147 34.1275 132.706 33.9189C132.266 33.7103 131.914 33.3626 131.652 32.8758C131.397 32.3813 131.269 31.7168 131.269 30.8823V18.4115Z" fill="black"/>
</svg>

<svg width="138" height="52" viewBox="0 0 138 52" fill="none" xmlns="http://www.w3.org/2000/svg"><path d="M14.253 32.882l6.016-1.525 2.514 7.747-8.53-6.222zm13.846-10.014h-10.59l-3.256-9.972-3.256 9.972H.407l8.571 6.181-3.255 9.973 8.571-6.181 5.275-3.792 8.53-6.181z" fill="#1AE0B0"/><path d="M44.205 17.125V34h-2.202V17.125h2.202zm5.425 0v1.831H36.59v-1.831h13.04zm3.442 6.305V34h-2.145V21.46h2.087l.058 1.97zm3.917-2.04l-.011 1.994a3.109 3.109 0 0 0-.51-.07 5.437 5.437 0 0 0-.534-.023c-.494 0-.93.077-1.31.232-.378.154-.699.37-.961.649-.263.278-.472.61-.626.996a4.788 4.788 0 0 0-.29 1.252l-.602.348c0-.757.073-1.468.22-2.133.154-.664.39-1.251.707-1.761.316-.518.718-.92 1.205-1.206.495-.293 1.082-.44 1.762-.44.154 0 .332.02.533.058.2.03.34.066.417.104zm9.655 9.712V21.46h2.155V34h-2.051l-.105-2.898zm.405-2.642l.893-.023c0 .834-.09 1.607-.267 2.318a4.977 4.977 0 0 1-.834 1.831 3.948 3.948 0 0 1-1.519 1.217c-.626.286-1.387.429-2.283.429-.61 0-1.17-.09-1.68-.267a3.358 3.358 0 0 1-1.299-.823c-.363-.37-.645-.854-.846-1.448-.193-.595-.29-1.31-.29-2.145v-8.09h2.145v8.114c0 .564.062 1.031.185 1.402.132.363.305.653.522.87.224.208.471.355.741.44.279.085.564.127.858.127.912 0 1.634-.174 2.168-.521.533-.356.915-.831 1.147-1.426.24-.603.36-1.271.36-2.005zm12.32 2.214c0-.31-.07-.595-.208-.858-.132-.27-.406-.514-.823-.73-.41-.224-1.028-.417-1.855-.58a14.7 14.7 0 0 1-1.889-.521 5.727 5.727 0 0 1-1.425-.73 3.063 3.063 0 0 1-.893-1.009c-.208-.386-.313-.838-.313-1.356 0-.494.109-.962.325-1.402.224-.44.537-.83.939-1.17.41-.34.9-.607 1.472-.8a5.949 5.949 0 0 1 1.912-.29c1.004 0 1.862.178 2.573.533.71.355 1.255.83 1.634 1.426.379.587.568 1.24.568 1.958h-2.144a1.84 1.84 0 0 0-.313-1.008c-.201-.332-.499-.607-.892-.823-.387-.216-.862-.325-1.426-.325-.595 0-1.078.093-1.449.279-.363.177-.63.405-.8.683a1.721 1.721 0 0 0-.243.881c0 .232.039.44.116.626.085.178.232.344.44.499.209.146.503.285.881.417.379.131.862.263 1.449.394 1.028.232 1.874.51 2.538.834.665.325 1.16.723 1.484 1.194.324.471.486 1.043.486 1.715 0 .549-.115 1.051-.347 1.507-.224.456-.553.85-.985 1.182-.425.325-.935.58-1.53.765-.587.178-1.248.267-1.982.267-1.105 0-2.04-.197-2.805-.591-.765-.394-1.344-.904-1.738-1.53a3.66 3.66 0 0 1-.592-1.982h2.156c.031.587.201 1.055.51 1.402.31.34.688.584 1.136.73.448.14.892.21 1.333.21.587 0 1.078-.078 1.472-.233.402-.154.707-.367.915-.637.209-.27.313-.58.313-.927zM89.58 21.46v1.645H82.8V21.46h6.78zm-4.485-3.049h2.144v12.483c0 .425.066.746.197.962.131.216.301.36.51.429.209.07.433.104.672.104.178 0 .363-.016.556-.046.201-.039.352-.07.452-.093l.012 1.75a5.01 5.01 0 0 1-.672.15 5.11 5.11 0 0 1-.985.082 3.341 3.341 0 0 1-1.45-.313c-.44-.209-.791-.556-1.054-1.043-.255-.495-.382-1.16-.382-1.994v-12.47zm9.144 5.46v14.95h-2.156V21.46h1.97l.186 2.41zm8.449 3.755v.243c0 .912-.108 1.758-.324 2.538-.217.773-.533 1.445-.951 2.017a4.318 4.318 0 0 1-1.518 1.333c-.602.316-1.294.475-2.074.475-.796 0-1.5-.132-2.11-.394a4.16 4.16 0 0 1-1.553-1.148 5.863 5.863 0 0 1-1.02-1.808 10.466 10.466 0 0 1-.51-2.376v-1.298c.093-.927.267-1.757.522-2.492.255-.734.59-1.36 1.008-1.877a4.14 4.14 0 0 1 1.542-1.194c.602-.278 1.298-.417 2.086-.417.788 0 1.487.154 2.098.463a4.22 4.22 0 0 1 1.541 1.299c.417.564.73 1.24.939 2.028.216.78.324 1.65.324 2.607zm-2.155.243v-.244a7.57 7.57 0 0 0-.197-1.761 4.464 4.464 0 0 0-.615-1.46 2.925 2.925 0 0 0-1.043-.997c-.425-.247-.93-.371-1.518-.371-.54 0-1.012.093-1.414.278-.394.186-.73.437-1.008.753a4 4 0 0 0-.684 1.067c-.17.394-.298.803-.383 1.228v3.002c.155.54.371 1.05.65 1.53.278.471.648.854 1.112 1.147.464.286 1.047.43 1.75.43.58 0 1.078-.12 1.495-.36a3.026 3.026 0 0 0 1.043-1.008c.278-.426.483-.912.615-1.46a7.718 7.718 0 0 0 .197-1.774zm7.22-6.41V34h-2.156V21.46h2.156zm-2.318-3.326c0-.347.104-.641.313-.88.216-.24.533-.36.95-.36.41 0 .723.12.939.36.224.239.336.533.336.88 0 .333-.112.619-.336.858-.216.232-.529.348-.939.348-.417 0-.734-.116-.95-.348a1.26 1.26 0 0 1-.313-.858zm8.09-1.935V34h-2.156V16.198h2.156zm2.874 11.67v-.266c0-.904.132-1.742.394-2.515a5.989 5.989 0 0 1 1.136-2.028 5.066 5.066 0 0 1 1.797-1.344c.703-.325 1.491-.487 2.364-.487.881 0 1.673.162 2.376.487a5.045 5.045 0 0 1 1.808 1.344 5.863 5.863 0 0 1 1.147 2.028c.263.773.394 1.611.394 2.515v.267c0 .904-.131 1.742-.394 2.515a6.009 6.009 0 0 1-1.147 2.028 5.262 5.262 0 0 1-1.796 1.345c-.696.316-1.484.475-2.365.475-.881 0-1.673-.159-2.376-.475a5.376 5.376 0 0 1-1.808-1.345 6.14 6.14 0 0 1-1.136-2.028 7.785 7.785 0 0 1-.394-2.515zm2.144-.266v.267c0 .626.074 1.217.221 1.773.146.549.367 1.035.66 1.46.302.425.676.762 1.125 1.009.448.24.969.36 1.564.36.587 0 1.101-.12 1.542-.36a3.229 3.229 0 0 0 1.112-1.008c.294-.426.514-.912.661-1.46a6.62 6.62 0 0 0 .232-1.774v-.267c0-.618-.078-1.201-.232-1.75a4.518 4.518 0 0 0-.672-1.472 3.2 3.2 0 0 0-1.113-1.02c-.44-.247-.958-.37-1.553-.37-.587 0-1.105.123-1.553.37a3.337 3.337 0 0 0-1.113 1.02 4.649 4.649 0 0 0-.66 1.472 6.737 6.737 0 0 0-.221 1.75zm17.212-6.142v1.645h-6.781V21.46h6.781zm-4.486-3.049h2.144v12.483c0 .425.066.746.197.962.132.216.302.36.51.429.209.07.433.104.673.104.177 0 .363-.016.556-.046.201-.039.351-.07.452-.093l.011 1.75a4.981 4.981 0 0 1-.672.15c-.27.055-.599.082-.985.082a3.345 3.345 0 0 1-1.449-.313c-.44-.209-.792-.556-1.054-1.043-.255-.495-.383-1.16-.383-1.994v-12.47z" fill="#000"/></svg>
